!!!COM: Robert Schumann
!!!CNT: Deutsch
!!!TXO: Deutsch
!!!OTL: Alte Laute
!!!LYR: Kerner
!!!OPR: Zwo2lf Gedichte
!!!OPS: Op.35
!!!ONM: No. 12
!!!ENC: Ben Fuhrman
!!!YOR: Schumann Lieder - Max Friedlaender, ed.,
!!!YOR: New York: C. F. Peters, Vol. 2
!!!ODT: 1840/
!!NB: Vocal melody and text only encoded.
!!NB: First instance of melodic material only encoded.
**kern	**silbe
*clefG2	*
*k[b-e-a-d-]	*
*M6/8	*
!!created: 07/05/06 10:55
!!proofed and posted: 07/05/06 10:55
!!edit time: 25 minutes
=4	=4
{8e-	Ho2rst
8.e-	du
16e-	den
4a-	Vo-
8a-	-gel
=5	=5
8a-	sin-
4a-}	-gen?}
4r	.
8r	.
=6	=6
{8f	{Siehst
8.f	du
16f	den
4g	Blu2-
8g	-ten-
=7	=7
4.a-}	-baum?}
4r	.
8r	.
=8	=8
{8g	{Herz!
8.g	kann
16g	dich
4b-	das
8a-	nicht
=9	=9
8g	brin-
4b-}	-gen}
8r	.
8r	.
{8a-	{aus
=10	=10
4g	dei-
8g	-nem
4b-	ban-
8a-	-gen
=11	=11
(qg	Traum?
4.b-)}	|}
8r	.
8r	.
{8cc	{Was
=12	=12
8b-	ho2r'
4b-	ich?
4dd-	al-
8cc-	-te
=13	=13
8b-	Lau-
8dd-}	-te}
8r	.
4r	.
8r	.
=14	=14
{8b-	{weh-
8.b-	-mu2t'
16b-	ger
4dd-	Ju2ng-
8cc-	-lings-
=15	=15
(qb-	-brust,
4.dd)-}	|}
8r	.
8r	.
{8ee-	{der
=16	=16
[4dd-	Zeit,
16dd-]	|
16dd-	als
[4dd-	ich
16dd-]	|
16cc-	ver-
=17	=17
8b-	trau-
8b-}	-te}
8r	.
8r	.
8r	.
{8cc-	{der
=18	=18
[4b-	Welt
16b-]	|
16b-	und
[4a-	ih-
16a-]	|
16a-	-rer
=19	=19
(qg	Lust.
4.b-)}	|}
4r	.
8r	.
=20	=20
{8e-	{Die
8.e-	Ta-
16e-	-ge
4a-	sind
8a-	ver-
=21	=21
8a-	-gan-
8a-}	-gen,}
8r	.
4r	.
8r	.
=22	=22
{8f	{mich
8.f	heilt
16f	kein
4g	Kraut
8g	der
=23	=23
[4.a-	Flur;
4a-]}	|}
8r	.
=24	=24
{8a-	{und
8.a-	aus
16a-	dem
4an	Traum,
8an	dem
=25	=25
4cc	ban-
[8b-	-gen,
4.b-]	|
=26	=26
8f	weckt
8.f	mich
16f	ein
(qf	En-
4b-)	|
8a-	-gel
=27	=27
4a-}	nur.}
8r	.
4.r	.
==	==
*-	*-
